packages/foundations/assets/icons/functional/images/arrows/chevron_right_28.svg

<svg width="28" height="28" viewBox="0 0 28 28" fill="none" xmlns="http://www.w3.org/2000/svg">
<g clip-path="url(#clip0_77_507)">
<path fill-rule="evenodd" clip-rule="evenodd" d="M9.625 21C9.625 21.492 9.981 21.875 10.5 21.875C10.7325 21.8715 10.9559 21.7842 11.129 21.629L18.129 14.629C18.2844 14.4556 18.3718 14.2318 18.375 13.999C18.3714 13.7669 18.284 13.5438 18.129 13.371L11.129 6.371C10.9559 6.21583 10.7325 6.12847 10.5 6.125C10.2675 6.12838 10.0441 6.21575 9.871 6.371C9.71553 6.54435 9.62814 6.76816 9.625 7.001C9.625 7.219 9.707 7.437 9.871 7.629L16.269 13.999L9.871 20.371C9.71583 20.5441 9.62847 20.7675 9.625 21Z" fill="#1A1C1F"/>
</g>
<defs>
<clipPath id="clip0_77_507">
<rect width="28" height="28" fill="white"/>
</clipPath>
</defs>
</svg>

<svg xmlns="http://www.w3.org/2000/svg" width="28" height="28" fill="none"><g clip-path="url(#a)"><path fill="#1A1C1F" fill-rule="evenodd" d="M9.625 21c0 .492.356.875.875.875a.96.96 0 0 0 .629-.246l7-7a.96.96 0 0 0 .246-.63.96.96 0 0 0-.246-.628l-7-7a.96.96 0 0 0-.629-.246.96.96 0 0 0-.629.246.96.96 0 0 0-.246.63c0 .218.082.436.246.628l6.398 6.37-6.398 6.372a.96.96 0 0 0-.246.629" clip-rule="evenodd"/></g><defs><clipPath id="a"><path fill="#fff" d="M0 0h28v28H0z"/></clipPath></defs></svg>
